X:125
T:score209
L:1/16
Q:1/4=96
M:2/4
I:linebreak $
K:G
!p! F2 | F2 G4 AB | A2d2 z2 B2 | B2 c4 de | d2g2!mf! z2 B2 | B2 e4 AG |$ GFED G2A/B/c | %7
 BGe2 !trill(!TA4 | G8 |] %9
